build/img/SVG/file-code-o.svg

<?xml version="1.0" encoding="utf-8"?>
<!-- Generated by IcoMoon.io -->
<!DOCTYPE svg PUBLIC "-//W3C//DTD SVG 1.1//EN" "http://www.w3.org/Graphics/SVG/1.1/DTD/svg11.dtd">
<svg version="1.1" xmlns="http://www.w3.org/2000/svg" xmlns:xlink="http://www.w3.org/1999/xlink" width="48" height="56" viewBox="0 0 48 56">
<path fill="#444444" d="M45.875 11.875q0.875 0.875 1.5 2.375t0.625 2.75v36q0 1.25-0.875 2.125t-2.125 0.875h-42q-1.25 0-2.125-0.875t-0.875-2.125v-50q0-1.25 0.875-2.125t2.125-0.875h28q1.25 0 2.75 0.625t2.375 1.5zM32 4.25v11.75h11.75q-0.312-0.906-0.687-1.281l-9.781-9.781q-0.375-0.375-1.281-0.687zM44 52v-32h-13q-1.25 0-2.125-0.875t-0.875-2.125v-13h-24v48h40zM15 24q0.25-0.344 0.656-0.391t0.75 0.203l1.594 1.187q0.344 0.25 0.391 0.656t-0.203 0.75l-5.688 7.594 5.688 7.594q0.25 0.344 0.203 0.75t-0.391 0.656l-1.594 1.187q-0.344 0.25-0.75 0.203t-0.656-0.391l-7.063-9.406q-0.438-0.594 0-1.187zM40.062 33.406q0.438 0.594 0 1.187l-7.063 9.406q-0.25 0.344-0.656 0.391t-0.75-0.203l-1.594-1.187q-0.344-0.25-0.391-0.656t0.203-0.75l5.688-7.594-5.688-7.594q-0.25-0.344-0.203-0.75t0.391-0.656l1.594-1.187q0.344-0.25 0.75-0.203t0.656 0.391zM20.688 47.813q-0.406-0.063-0.641-0.406t-0.172-0.75l4.312-25.969q0.063-0.406 0.406-0.641t0.75-0.172l1.969 0.312q0.406 0.063 0.641 0.406t0.172 0.75l-4.312 25.969q-0.063 0.406-0.406 0.641t-0.75 0.172z"></path>
</svg>

<svg xmlns="http://www.w3.org/2000/svg" width="48" height="56" viewBox="0 0 48 56"><path fill="#444" d="M45.875 11.875q.875.875 1.5 2.375T48 17v36q0 1.25-.875 2.125T45 56H3q-1.25 0-2.125-.875T0 53V3Q0 1.75.875.875T3 0h28q1.25 0 2.75.625t2.375 1.5zM32 4.25V16h11.75q-.312-.906-.687-1.28l-9.78-9.782Q32.906 4.563 32 4.25zM44 52V20H31q-1.25 0-2.125-.875T28 17V4H4v48h40zM15 24q.25-.344.656-.39t.75.202L18 25q.344.25.39.655t-.202.75L12.5 34l5.688 7.593q.25.344.203.75T18 43l-1.594 1.186q-.344.25-.75.203T15 43.997l-7.063-9.406q-.438-.594 0-1.187zm25.062 9.406q.438.594 0 1.187L33 44q-.25.343-.657.39t-.75-.203L30 43q-.345-.25-.392-.656t.203-.75L35.5 34l-5.69-7.594q-.25-.344-.202-.75t.39-.656l1.595-1.187q.344-.25.75-.203T33 24zM20.688 47.813q-.406-.063-.64-.406t-.173-.75l4.312-25.97q.063-.405.406-.64t.75-.172l1.97.312q.405.063.64.406t.172.75l-4.312 25.97q-.063.405-.406.64t-.75.172z"/></svg>
